X:1
T:Title
%%score 1 2 3 4
L:1/8
M:2/2
K:C
V:1 treble nm="Part_1"
V:2 treble-8 nm="Part_2"
V:3 treble-8 nm="Part_3"
V:4 treble-8 nm="Part_4"
V:1
 D8- | D8 | F8 | F8 | G8 | A4 G4 | (3:2:2B4 A2 A4- | A2 ^G2 G2 ^F2 | A8 | z8 | G8 | A4 c4- | %12
 c2 B2 d4- | d2 cB A4- | A4 c4 | B8 | A8 | z4 A4 | B4 c4- | c4 B4 | G6 FG | A4 G2 E2- | E2 D2 F4 | %23
 G4 E4- | E4 D4 | E8 | z4 G4- | G4 A4- | A4 c4 | B2 d4 c2 | A4 G4- | G2 A2 B4 | c6 A2 | c4 B4- | %34
 B2 A2 A4- | A2 ^G2 G2 ^F2 | A8 | z8 | D8 | F6 EF | G8 | D4 F4- | F2 E2 C4 | D8 | C8 | D2 E2 F4- | %46
 F2 D2 E4 | F8 | z4 G4- | G2 FE D4 | C4 F4 | E2 G4 F2 | D4 E4 | C4 F4- | F2 E2 E4- | E4 D4 | E8- | %57
 E8 |] %58
V:2
 d8- | d8 | d8 | A8 | G4 c4- | c4 e4 | d4 c4 | B8 | A8- | A8 | z4 c4- | c2 B2 A4 | G8 | B4 c4 | %14
 d2 c2 A4 | G6 E2 | F4 D4- | D4 z4 | G4 A4 | F4 G4- | G4 B4 | c6 B2 | G4 A4 | E4 G4 | F8 | E8- | %26
 E8 | e4 c4 | (3:2:2d4 c2 A4 | G4 B4 | c8 | e4 d2 B2 | A4 e4- | e2 d2 d4- | d4 c4 | B8 | A8- | A8 | %38
 z8 | d8 | e4 (3:2:2c4 B2 | d8 | A4 c4- | c2 B2 B2 A2 | c4 A4 | F8 | G8 | F8 | D4 E4 | C4 F4- | %50
 F4 A4 | G4 B4- | B4 (3:2:1c6- | (3:2:2c2 A4 A4 | G4 E4 | F8 | E8- | E8 |] %58
V:3
 D8- | D8 | z4 D4 | D8 | E4 C4 | F4 E2 C2 | G4 A4 | E8 | z4 F4 | D8 | E4 C4 | F4 z2 c2 | d4 B4 | %13
 G2 E2 F4 | D4 z4 | d4 e4 | (3:2:2f8 e4 | d8 | z2 d4 (3:2:1c3- | (3:2:2c A2 c2 B2 d2- | d2 B2 G4 | %21
 F4 E4 | z2 E2 D4 | G2 A2 B4 | A6 G2 | B6 c2 | B2 G4 F2 | E4 F4 | D4 c4 | (3:2:2d4 B2 G4 | %30
 F2 E2 C4 | c4 B2 d2 | e4 c4 | A2 c2 G4- | G4 A4 | E8 | F8 | D8- | D8 | z4 F4 | C8 | F4 D4- | %42
 D4 C4 | G8 | C4 (3:2:2F4 G2 | A4 F4 | C8 | c4 d2 A2 | B2 A2 c4- | c4 z4 | A4 D4 | E8 | G4 C4- | %53
 C4 D4 | E4 G4 | A6 G2 | B8- | B8 |] %58
V:4
 A8- | A8 | D8 | d8 | B4 (3:2:2c4 A2 | A4 c4 | d2 B2 e4- | e4 e4 | c6 B2 | d4 f4 | e8 | z4 e4 | %12
 d2 B4 d2 | e2 de f4- | f4 e2 c2 | B6 c2 | d6 cB | A4 D4 | z4 F4 | (3:2:2c4 A2 d4 | B4 z2 B2 | %21
 A2 F2 G3 A | B4 d4 | c2 B4 G2 | A4 F3 E | G6 A2 | B8 | B4 A2 A2- | A2 F2 F4 | G2 B4 d2 | c3 d e4 | %31
 c2 BA G4 | c2 A4 c2- | c2 e2 d2 B2- | B2 A2 c3 d | e8 | c6 Bc | d6 c2 | B2 A2 A4 | D8 | z4 E4 | %41
 A8 | F2 E2 G4 | z4 G4- | G4 A2 F2- | F2 D2 A2 B2 | c8 | A8 | G4 z4 | G4 A4 | z2 c2 d4 | B4 G4 | %52
 z4 G4 | A4 d4 | B2 G2 B4 | A4 (3:2:2F4 E2 | G4 A4 | B8 |] %58

